src/cmd/lc_movedown.svg

<svg viewBox="0 0 24 24" xmlns="http://www.w3.org/2000/svg"><path d="m4 4v1h16v-1zm0 2v1h13v-1zm7 4v1h9v-1zm0 2v1h1 1v-1h-1zm5 0v1h1 3v-1h-3zm-12 4v1h16v-1h-10zm0 2v1h3 10v-1h-10zm14 1v1h2v-1z" fill="#232629"/><path d="m4 10 3 4 3-4z" fill="#762572"/></svg>

<?xml version="1.0" encoding="UTF-8" standalone="no"?>
<svg
   xmlns:dc="http://purl.org/dc/elements/1.1/"
   xmlns:cc="http://creativecommons.org/ns#"
   xmlns:rdf="http://www.w3.org/1999/02/22-rdf-syntax-ns#"
   xmlns:svg="http://www.w3.org/2000/svg"
   xmlns="http://www.w3.org/2000/svg"
   xmlns:sodipodi="http://sodipodi.sourceforge.net/DTD/sodipodi-0.dtd"
   xmlns:inkscape="http://www.inkscape.org/namespaces/inkscape"
   viewBox="0 0 24 24"
   version="1.1"
   id="svg6"
   sodipodi:docname="lc_movedown.svg"
   inkscape:version="0.92.4 (5da689c313, 2019-01-14)">
  <metadata
     id="metadata12">
    <rdf:RDF>
      <cc:Work
         rdf:about="">
        <dc:format>image/svg+xml</dc:format>
        <dc:type
           rdf:resource="http://purl.org/dc/dcmitype/StillImage" />
      </cc:Work>
    </rdf:RDF>
  </metadata>
  <defs
     id="defs10" />
  <sodipodi:namedview
     pagecolor="#ffffff"
     bordercolor="#666666"
     borderopacity="1"
     objecttolerance="10"
     gridtolerance="10"
     guidetolerance="10"
     inkscape:pageopacity="0"
     inkscape:pageshadow="2"
     inkscape:window-width="1920"
     inkscape:window-height="1011"
     id="namedview8"
     showgrid="true"
     inkscape:zoom="27.812867"
     inkscape:cx="7.0974072"
     inkscape:cy="12.441896"
     inkscape:window-x="0"
     inkscape:window-y="32"
     inkscape:window-maximized="1"
     inkscape:current-layer="svg6">
    <inkscape:grid
       type="xygrid"
       id="grid822" />
  </sodipodi:namedview>
  <path
     d="M 4,4 V 5 H 20 V 4 Z M 4,6 V 7 H 20 V 6 Z m 7,4 v 1 h 9 v -1 z m 0,3 h 9 v -1 h -9 z m -7,3 v 1 H 20 V 16 H 10 Z m 0,2 v 1 H 7 20 V 18 H 7 Z"
     id="path2"
     inkscape:connector-curvature="0"
     style="fill:#232629"
     sodipodi:nodetypes="ccccccccccccccccccccccccccccccccc" />
  <path
     d="m4 10 3 4 3-4z"
     fill="#762572"
     id="path4" />
</svg>
